X:1
T:There Is Nothing Too Good to Be True
T:There Is Nothing Too Good to Be True
T:George Peter Hott
T:George Peter Hott, 1913
T:Public Domain Courtesy of the Cyber Hymnal™
T:Public Domain Courtesy of the Cyber Hymnal™
C:George Peter Hott
Z:Public Domain
Z:Courtesy of the Cyber Hymnal™
%%score ( 1 2 ) ( 3 4 )
L:1/8
Q:1/4=105
M:4/4
K:Eb
V:1 treble 
V:2 treble 
V:3 bass 
V:4 bass 
V:1
 E[EF] | [EG]2 [EG][EG] [EG]2 [DF][DF] | E6 [EG][FA] | [GB]2 [GB][GB] B2 [DA][EG] | %4
w: 1.~When we|think of earth’s tri- als and|cares, And the|tears that our eye- lids be-|
w: 2.~When we|think how as sin- ners we’re|lost, And a-|wait fear- ful pun- ish- ment|
w: 3.~When we|think of the suf- ferings of|death, And the|grave ev- er wait- ing in|
w: 4.~When we|think of our loved ones of|yore, How death|ga- thered from me and from|
 [DF]6 [EG][GB] | [Ge]2 [Ae][Ae] [Ge]2 [Bd][Ac] | [GB]6 (EF) | %7
w: dew, And are|told they’re in Heav- en un-|known, It *|
w: due, And are|told of His won- der- ful|cross, It *|
w: view, But are|told how Christ con- quered them|all, It *|
w: you, But are|told that we’ll meet them once|more, It *|
"^riten." [EG][EG] z [FA] [EG] z [DF][DF] | E6 ||"^Refrain" [B,E]2 | %10
w: seems just too good to be|true.||
w: seems just too good to be|true.|But|
w: seems just too good to be|true.||
w: seems just too good to be|true.||
 [EG][EG] z [EG] [EG] z [DF][DF] | E6 [EB]2 | [Ec][Ec] z [Fd] [Fd] z [Ec][Ec] | B6 [EB][FB] | %14
w: ||||
w: is it too good to be|true? Oh,|is it too good to be|true? When we|
w: ||||
w: ||||
 [Ge]2 [Ae][Ae] [Ge]2 [Bd][Ac] | B2 [DA][DA] [EG]2 E[EF] | %16
w: ||
w: think of the won- der- ful|love of our Lord, There is|
w: ||
w: ||
"^riten." [EG][EG] z [FA] [EG] z [DF][DF] | E6 |] %18
w: ||
w: no- thing too good to be|true.|
w: ||
w: ||
V:2
 E x | x8 | E6 x2 | x4 (GE) x2 | x8 | x8 | x6 E2 | x8 | E6 || x2 | x8 | E6 x2 | x8 | %13
 (D2 DE F2) x2 | x8 | (GE) x3 E x2 | x8 | (E2 C_C B,2) |] %18
V:3
 [E,G,][E,A,] | [E,B,]2 [E,B,][E,B,] [E,B,]2 [B,,A,][B,,A,] | [E,G,]6 [E,B,][E,B,] | %3
w: ~ ~|~ ~ ~ ~ ~ ~|~ ~ ~|
 [E,E]2 [E,E][E,E] ([E,E][G,B,])[F,B,][E,B,] | [B,,B,]6 [E,B,][E,B,] | %5
w: ~ ~ ~ ~ * ~ ~|~ ~ ~|
 [E,B,]2 [E,C][E,C] [E,B,]2 [E,C][E,D] | [E,E]6 ([G,,B,][A,,C]) | %7
w: ~ ~ ~ ~ ~ ~|~ ~ *|
 [B,,B,][B,,B,] z [B,,C] [B,,B,] z [B,,A,][B,,A,] | [E,G,]6 || [E,G,]2 | %10
w: ~ ~ ~ ~ ~ ~|~|~|
 [E,B,][E,B,] z [E,B,] [E,B,] z [B,,A,][B,,A,] | [E,G,]6 [E,G,]2 | %12
w: ~ ~ ~ ~ ~ ~|~ ~|
 [C,G,][C,G,] z [F,B,] [F,B,] z [F,=A,][F,A,] | B,2 F,G, A,2 [E,G,][E,A,] | %14
w: ~ ~ ~ ~ ~ ~|~ to be true? ~ ~|
 [E,B,]2 [E,C][E,C] [E,B,]2 [E,C][E,D] | ([E,E][G,B,])[F,B,][F,B,] [E,B,]2 [G,,B,][A,,C] | %16
w: ~ ~ ~ ~ ~ ~|~ * ~ ~ ~ ~ ~|
 [B,,B,][B,,B,] z [B,,C] [B,,B,] z [B,,A,][B,,A,] | G,2 A,A, G,2 |] %18
w: ~ ~ ~ ~ ~ ~|~ to be true.|
V:4
 x2 | x8 | x8 | x8 | x8 | x8 | x8 | x8 | x6 || x2 | x8 | x8 | x8 | B,,6 x2 | x8 | x8 | x8 | E,6 |] %18

